X: 1
T: Tir na nOg
C: Jessica ???
N: The name is obscured
S: http://www.freewebs.com/tir-nan-og/tirnanogextras.htm 2018-11-30
M: 3/4
L: 1/4
K: Dm
[|\
"F"C D A | "C"G2 F/E/ | "Bb"D2 C | "Dm"D2 E |\
"F"C D A | "Bb"G2 F | "C"G2 "F"A | "C7"B3 |
"F"C D A | "C"G2 F/E/ | "Bb"D2 C | "Dm"D2 E |\
"F"C D A | "C"G2 F/E/ | "Bb"D2 C/E/ | "Dm"D3- | D3 |
"Dm"D3 | A3 | "C"G> A G/F/ | "C"E F G |\
"Dm"D2 F | "C"E2 C | "Dm"D2 E | F2 G |
"Dm"D3 | A3 | "C"G> A G/F/ | E F G |\
"Dm"D2 F | "C"E2 C | "Dm"D3- | D3 |
"Dm"D2 F | "C"E2 C | "Dm"D3- | D3 |\
"n.c."[A3F3] | [E2C2] [GE] | [F3D3] | [E2C2] [GE] |\
[F3-D3-] | [G3-D3-] | [A3D3] |]
